packages/kaspersky-hexa-ui-icons/src/iconsSVGs/64x42/FlagKm.svg

<svg xmlns="http://www.w3.org/2000/svg" width="64" height="42" fill="none" viewBox="0 0 64 42"><g clip-path="url(#a)"><rect width="64" height="42" fill="#fff" rx="5"/><path fill="#ffcb49" fill-rule="evenodd" d="M0 10.5h64V0H0z" clip-rule="evenodd"/><path fill="#fff" fill-rule="evenodd" d="M0 21h64V10.5H0z" clip-rule="evenodd"/><path fill="#dc1d34" fill-rule="evenodd" d="M0 31.5h64V21H0z" clip-rule="evenodd"/><path fill="#4985d4" fill-rule="evenodd" d="M0 42h64V31.5H0z" clip-rule="evenodd"/><path fill="#4ba343" fill-rule="evenodd" d="m0 42 28-21L0 0z" clip-rule="evenodd"/><path fill="#fff" fill-rule="evenodd" d="M6.9998 21c0 3.9141 2.677 7.2029 6.3 8.1354a8.42 8.42 0 0 1-2.1.2646c-4.6392 0-8.4-3.7608-8.4-8.4s3.7608-8.4 8.4-8.4a8.42 8.42 0 0 1 2.1.2646c-3.623.9325-6.3 4.2213-6.3 8.1354M15.4 16.8c.7732 0 1.4-.6268 1.4-1.4s-.6268-1.4-1.4-1.4-1.4.6268-1.4 1.4.6268 1.4 1.4 1.4m1.4 4.2c0 .7732-.6268 1.4-1.4 1.4S14 21.7732 14 21s.6268-1.4 1.4-1.4 1.4.6268 1.4 1.4m-1.4 7c.7732 0 1.4-.6268 1.4-1.4s-.6268-1.4-1.4-1.4-1.4.6268-1.4 1.4.6268 1.4 1.4 1.4" clip-rule="evenodd"/></g><defs><clipPath id="a"><rect width="64" height="42" fill="#fff" rx="5"/></clipPath></defs></svg>

<svg width="64" height="42" viewBox="0 0 64 42" fill="none" xmlns="http://www.w3.org/2000/svg">
<g clip-path="url(#clip0_37941_2215)">
<rect width="64" height="42" rx="5" fill="white"/>
<path fill-rule="evenodd" clip-rule="evenodd" d="M0 10.5H64V0H0V10.5Z" fill="#FFCB49"/>
<path fill-rule="evenodd" clip-rule="evenodd" d="M0 21H64V10.5H0V21Z" fill="white"/>
<path fill-rule="evenodd" clip-rule="evenodd" d="M0 31.5H64V21H0V31.5Z" fill="#DC1D34"/>
<path fill-rule="evenodd" clip-rule="evenodd" d="M0 42H64V31.5H0V42Z" fill="#4985D4"/>
<path fill-rule="evenodd" clip-rule="evenodd" d="M0 42L28 21L0 0V42Z" fill="#4BA343"/>
<path fill-rule="evenodd" clip-rule="evenodd" d="M6.99983 21C6.99983 24.9141 9.67685 28.2029 13.2998 29.1354C12.6286 29.3081 11.9249 29.4 11.1998 29.4C6.56061 29.4 2.7998 25.6392 2.7998 21C2.7998 16.3608 6.56061 12.6 11.1998 12.6C11.9249 12.6 12.6286 12.6919 13.2998 12.8646C9.67684 13.7971 6.99983 17.0859 6.99983 21ZM15.3999 16.8C16.1731 16.8 16.7999 16.1732 16.7999 15.4C16.7999 14.6268 16.1731 14 15.3999 14C14.6267 14 13.9999 14.6268 13.9999 15.4C13.9999 16.1732 14.6267 16.8 15.3999 16.8ZM16.7999 21C16.7999 21.7732 16.1731 22.4 15.3999 22.4C14.6267 22.4 13.9999 21.7732 13.9999 21C13.9999 20.2268 14.6267 19.6 15.3999 19.6C16.1731 19.6 16.7999 20.2268 16.7999 21ZM15.3999 28C16.1731 28 16.7999 27.3732 16.7999 26.6C16.7999 25.8268 16.1731 25.2 15.3999 25.2C14.6267 25.2 13.9999 25.8268 13.9999 26.6C13.9999 27.3732 14.6267 28 15.3999 28Z" fill="white"/>
</g>
<defs>
<clipPath id="clip0_37941_2215">
<rect width="64" height="42" rx="5" fill="white"/>
</clipPath>
</defs>
</svg>
